assets/img/confs/ngSpain.svg

<svg height="229" viewBox="0 0 214 229" width="214" xmlns="http://www.w3.org/2000/svg" xmlns:xlink="http://www.w3.org/1999/xlink"><linearGradient id="a" x1="50%" x2="50%" y1="0%" y2="100%"><stop offset="0" stop-color="#ffbd00"/><stop offset=".706828035" stop-color="#fd4000"/><stop offset=".811032334" stop-color="#fd2d00"/><stop offset="1" stop-color="#fc0c00"/></linearGradient><linearGradient id="b" x1="50%" x2="50%" y1=".553197%" y2="100%"><stop offset="0" stop-color="#fc0200"/><stop offset="1" stop-color="#ffbd00"/></linearGradient><g fill="none" fill-rule="nonzero" transform="translate(5 5)"><path d="m101.673513 0-101.673513 36.3034102 15.5076679 134.6069218 86.1658451 47.78491 86.165845-47.78491 15.507668-134.6069218z" fill="#fff" stroke="url(#a)" stroke-width="9"/><path d="m102.609294 24-63.609294 142h23.7168675l12.7874354-31.77318h53.9913941l12.787436 31.77318h23.716867zm18.580035 90.640613h-37.1600691l18.5800341-44.5042145z" fill="url(#b)"/></g></svg>

<?xml version="1.0" encoding="UTF-8"?>
<svg width="214px" height="229px" viewBox="0 0 214 229" version="1.1" xmlns="http://www.w3.org/2000/svg" xmlns:xlink="http://www.w3.org/1999/xlink">
    <!-- Generator: Sketch 52.1 (67048) - http://www.bohemiancoding.com/sketch -->
    <title>Group 2</title>
    <desc>Created with Sketch.</desc>
    <defs>
        <linearGradient x1="50%" y1="0%" x2="50%" y2="100%" id="linearGradient-1">
            <stop stop-color="#FFBD00" offset="0%"></stop>
            <stop stop-color="#FD4000" offset="70.6828035%"></stop>
            <stop stop-color="#FD2D00" offset="81.1032334%"></stop>
            <stop stop-color="#FC0C00" offset="100%"></stop>
        </linearGradient>
        <polygon id="path-2" points="101.673513 0 0 36.3034102 15.5076679 170.910332 101.673513 218.695242 187.839358 170.910332 203.347026 36.3034102"></polygon>
        <linearGradient x1="50%" y1="0.553197254%" x2="50%" y2="100%" id="linearGradient-4">
            <stop stop-color="#FC0200" offset="0%"></stop>
            <stop stop-color="#FFBD00" offset="100%"></stop>
        </linearGradient>
    </defs>
    <g id="Page-1" stroke="none" stroke-width="1" fill="none" fill-rule="evenodd">
        <g id="Artboard" transform="translate(-305.000000, -232.000000)">
            <g id="Group-2" transform="translate(310.000000, 237.000000)">
                <g id="angular">
                    <g id="Oval-3-+-Oval-3-+-Oval-3-+-Oval-3-+-Oval-3-Mask">
                        <mask id="mask-3" fill="white">
                            <use xlink:href="#path-2"></use>
                        </mask>
                        <use id="Mask" stroke="url(#linearGradient-1)" stroke-width="9" fill="#FFFFFF" fill-rule="nonzero" xlink:href="#path-2"></use>
                    </g>
                </g>
                <path d="M102.609294,24 L39,166 L62.7168675,166 L75.5043029,134.22682 L129.495697,134.22682 L142.283133,166 L166,166 L102.609294,24 Z M121.189329,114.640613 L84.0292599,114.640613 L102.609294,70.1363985 L121.189329,114.640613 Z" id="Shape" fill="url(#linearGradient-4)" fill-rule="nonzero"></path>
            </g>
        </g>
    </g>
</svg>
